!!!COM: Palestrina, Giovanni Perluigi da
!!!OPR: Missa Hodie Christus Natus Est
!!!OMD: Benedictus
!!!OTL: B.Hosanna
**kern	**kern	**kern	**kern	**kern	**kern	**kern	**kern
*Ibass	*Itenor	*Itenor	*Icalto	*Ibass	*Icalto	*Icant	*Icant
!Bassus	!Tenor 2	!Tenor 1	!Altus	!Bassus	!Altus	!Cantus 2	!Cantus 1
*clefF4	*clefGv2	*clefGv2	*clefG2	*clefF4	*clefG2	*clefG2	*clefG2
*k[]	*k[]	*k[]	*k[]	*k[]	*k[]	*k[]	*k[]
*G:mix	*G:mix	*G:mix	*G:mix	*G:mix	*G:mix	*G:mix	*G:mix
*M3/2	*M3/2	*M3/2	*M3/2	*M3/2	*M3/2	*M3/2	*M3/2
=39	=39	=39	=39	=39	=39	=39	=39
2r	2r	2r	2r	1C	1g	1ee	1cc
2r	2r	2r	2r	.	.	.	.
2C	2e	2c	2g	2r	2r	2r	2r
=40	=40	=40	=40	=40	=40	=40	=40
1F	1f	1c	1a	1r	1r	1r	1r
2C	2e	2c	2g	2r	2r	2r	2r
=41	=41	=41	=41	=41	=41	=41	=41
1G	1d	1B	1g	2r	2r	2r	2r
.	.	.	.	2r	2r	2r	2r
2G	2d	2B	2g	2G	2g	2gg	2dd
=42	=42	=42	=42	=42	=42	=42	=42
2C	2e	2c	2g	1c	1g	1ee	1cc
2C	2e	2c	2g	.	.	.	.
2r	2r	2r	2r	2G	2g	2dd	2b
=43	=43	=43	=43	=43	=43	=43	=43
2r	2r	2r	2r	1d	1f#	1dd	1a
2r	2r	2r	2r	.	.	.	.
2D	2d	2d	2a	2d	2f#	2dd	2a
=44	=44	=44	=44	=44	=44	=44	=44
1G	1d	1B	1g	2G	2g	2dd	2b
.	.	.	.	2G	2g	2dd	2b
2D	2d	2A	2f#	2r	2r	2r	2r
=45	=45	=45	=45	=45	=45	=45	=45
1G	1d	1B	1g	1r	1r	1r	1r
2G	2e	2B	2g	2r	2r	2r	2r
=46	=46	=46	=46	=46	=46	=46	=46
2.F	2f	2c	1.a	1r	1r	1r	1r
.	2d	2f	.	.	.	.	.
4G	.	.	.	.	.	.	.
2A	2c	2e	.	2r	2r	2r	2r
=47	=47	=47	=47	=47	=47	=47	=47
2B-	2d	1d	2g	2r	2r	2r	2r
1A	1e	.	1a	2r	2r	2r	2r
.	.	2c#	.	2A	2a	2a	2ee
=48	=48	=48	=48	=48	=48	=48	=48
1D	2d	1d	1a	1d	2f	1a	1ff
.	2r	.	.	.	2d	.	.
2r	2r	2r	2r	2c#	2e	2a	2ee
=49	=49	=49	=49	=49	=49	=49	=49
1r	1r	1r	1r	1d	1f#	1a	1dd
2r	2r	2r	2r	2d	2f#	2a	2dd
=50	=50	=50	=50	=50	=50	=50	=50
2r	2r	2r	2r	4G	1g	1.dd	1b
.	.	.	.	4A	.	.	.
2r	2r	2r	2r	4B	.	.	.
.	.	.	.	4c	.	.	.
2D	2d	2d	2a	2d	2f#	.	2a
=51	=51	=51	=51	=51	=51	=51	=51
1G	1B	1d	1g	2G	2g	1dd	2b
.	.	.	.	2r	2r	.	2r
2G	2d	2B	2g	2G	2g	2gg	2b
=52	=52	=52	=52	=52	=52	=52	=52
1C	1c	1e	1g	1c	1g	1ee	2cc
.	.	.	.	.	.	.	4cc
.	.	.	.	.	.	.	4b
2C	2c	2e	2g	2c	2g	2cc	4g
.	.	.	.	.	.	.	4a
=53	=53	=53	=53	=53	=53	=53	=53
2G	1.B	2d	[1.g	1B	1g	1dd	4b
.	.	.	.	.	.	.	4cc
2G	.	2d	.	.	.	.	2dd
2G	.	2d	.	2B	2g	2dd	2gg
=54	=54	=54	=54	=54	=54	=54	=54
2C	1G	2e	1.g]	1.c	1.g	1.cc	2ee
1C	.	1c	.	.	.	.	1ee
.	2A	.	.	.	.	.	.
=55	=55	=55	=55	=55	=55	=55	=55
1.G	1.B	1.d	1.g	1.G	1.g	1.b	1.dd
==	==	==	==	==	==	==	==
*-	*-	*-	*-	*-	*-	*-	*-
!!!CDT: 1525/^1526/-1594/2/2
!!!OCY: Italia
!!!AGN: Mass (Parody)
!!!AST: renaissance, vocal
!!!ASW: Motet 1575 (Palestrina)
!!!PWK: Masses, Book 8vce
!!!RNB: Cadence finals: C,D
!!!YOR: Le Opere Complete, v. 30, p. 59
!!!YOO: Rome, Italy: Fratelli Scalera
!!!END: 1992//
!!!EED: John Miller
!!!YEC: Copyright 2000, John Miller
!!!YEN: United States of America
!!!YEM: Rights to all derivative electronic formats reserved.
!!!YEM: Refer to licensing agreement for further details.
!!!YEM: This file must be accompanied by the licensing agreement.
!!!YEM: A copy of the licensing agreement may be found at http://www.music-cog.ohio-state.edu/HumdrumDatabases/Palestrina/license.txt
!!!EMD: converted to Humdrum by Bret Aarden
